X: 1
T: Pete's Breakdown II [in C]
T: Peas Breakdown; Peace River Breakdown
C: \`Emilien "Pete" Couture
% \'Emilien Emmanuel (Pete) Couture (1902-1977), St-Boniface, Winipeg
F: https://www.thursdaycontra.com/~spuds/tunes/reels/PetesBreakdown2.abc
F: https://www.thursdaycontra.com/~spuds/tunes/reels/PetesBreakdown2.pdf
S: Michael Pavan, RJ mailing 20200207
M: C|
L: 1/8
K: Am
|: "Am"a2 g2 e2 d2 | c2 cB ABcA | "E"B2 AB edcB | "Am"ABcd e2 e2 |
|  "Am"a2 g2 e2 d2 | c2 cB ABcA | "E"B2 AB edcB | "Am"Aaec A4 :|
K: C
|: "C"C2 G,C E2 CE | G2 EG cedc | "G"B2 F2 FAGF | "C"E2 C2 C4 |
|  "C"C2 G,C E2 CE | G2 EG cedc | "G"B2 F2 FAGF | "C"E2 C2 C4 :|
W: Simplified version from the 1953 recording by Don Messer and his Islanders.
W: https://youtu.be/S8IbdpRxyRo

%%sep 1 1 500

